X:265
T:Foresters Sound the Cheerful Horn TS.265
M:6/8
L:1/8
Q:3/8=110
S:Thomas Sands’ MS,1810,Lincolnshire
R:jig
N:First 12 bars in hand B, rest completed by hand C
O:England;Lincolnshire
Z:vmp.Ruairidh Greig, 2011
K:D
A|ffff2f|a2ff2f|gfe fed|e3e2A|A2d def|edcB2d|A2A ABc|d3d2:|
|:E|E2AA2B|c2AA2c|d2cB2A|B3B2e|e2a agf|fee e2d|cde dcB|AAB cde|
ffff2f|a2ff2f|gfe fed|e3e2A|A2d def|edc Bcd|A2A ABc|d3d2HJ|]

